dist/intermediate-svg/sales.svg

<?xml version="1.0" encoding="utf-8"?><svg width="24" height="23.04" fill="none" xmlns="http://www.w3.org/2000/svg" viewBox="0 0 25 24"><g clip-path="url(#eyclip0)"><path d="M6.02881 22.5001L1.02881 17.5001 1.61459 16.9143C2.39564 16.1333 3.66197 16.1333 4.44302 16.9143L6.61459 19.0859C7.39564 19.867 7.39564 21.1333 6.6146 21.9143L6.02881 22.5001zM7.02881 19.5001L8.44302 18.0859C8.8181 17.7108 9.3268 17.5001 9.85724 17.5001H15.4041C15.8109 17.5001 16.208 17.3761 16.5425 17.1445L21.4286 13.7618C22.0294 13.3459 22.1643 12.5142 21.7259 11.9296V11.9296C21.3298 11.4015 20.5986 11.2582 20.0325 11.5979L16.0288 14.0001M4.02881 16.5001L6.36194 13.0004C6.7723 12.3849 7.48893 12.0461 8.22505 12.1197L12.0288 12.5001H14.7788C15.4692 12.5001 16.0288 13.0598 16.0288 13.7501V13.7501C16.0288 14.4405 15.4692 15.0001 14.7788 15.0001H12.0288" stroke="#333"/><path d="M17.4883 2.00072C18.2885 1.78631 19.111 2.26118 19.3254 3.06138L19.9166 5.26772C20.131 6.06791 19.6562 6.89042 18.856 7.10483L12.1657 8.89748 10.7981 3.79337 17.4883 2.00072zM4.02877 8.78877L11.1105 6.89124 11.5411 8.4982 4.45935 10.3957 4.02877 8.78877z" stroke="#0094FF"/><circle cx="13.917" cy="6" r="1" stroke="#0094FF"/></g><defs><clipPath id="eyclip0"><path fill="#fff" transform="translate(0.0288086 0.00012207)" d="M0 0H24V24H0z"/></clipPath></defs></svg>

<?xml version="1.0" encoding="utf-8"?><svg width="24" height="23.04" fill="none" xmlns="http://www.w3.org/2000/svg" viewBox="0 0 25 24"><g clip-path="url(#fvclip0)"><path d="M6.029 22.5l-5-5 .586-.586a2 2 0 012.828 0l2.172 2.172a2 2 0 010 2.828l-.586.586zM7.029 19.5l1.414-1.414a2 2 0 011.414-.586h5.547a2 2 0 001.139-.355l4.886-3.383c.6-.416.735-1.248.297-1.832v0a1.288 1.288 0 00-1.694-.332L16.03 14m-12 2.5L6.362 13a2 2 0 011.863-.88l3.804.38h2.75c.69 0 1.25.56 1.25 1.25v0c0 .69-.56 1.25-1.25 1.25h-2.75" stroke="#333"/><path d="M17.488 2a1.5 1.5 0 011.837 1.061l.592 2.207a1.5 1.5 0 01-1.061 1.837l-6.69 1.792-1.368-5.104 6.69-1.792zM4.029 8.789L11.11 6.89l.43 1.607-7.082 1.898-.43-1.607z" stroke="#0094FF"/><circle cx="13.917" cy="6" r="1" stroke="#0094FF"/></g><defs><clipPath id="fvclip0"><path fill="#fff" transform="translate(.029)" d="M0 0h24v24H0z"/></clipPath></defs></svg>
